Desktop/project_createx/public/images/Careers/phone.svg

<svg width="40" height="40" viewBox="0 0 40 40" fill="none" xmlns="http://www.w3.org/2000/svg">
<path fill-rule="evenodd" clip-rule="evenodd" d="M14.1673 4.86947C12.7866 4.86947 11.6673 5.98875 11.6673 7.36947V32.6299C11.6673 34.0106 12.7866 35.1299 14.1673 35.1299H25.834C27.2147 35.1299 28.334 34.0106 28.334 32.6299V7.36947C28.334 5.98875 27.2147 4.86947 25.834 4.86947H25.695L25.2891 5.84355C25.0303 6.46458 24.4234 6.86909 23.7507 6.86909H16.2507C15.5779 6.86909 14.971 6.46458 14.7122 5.84355L14.3063 4.86947H14.1673ZM8.33398 7.36947C8.33398 4.1478 10.9457 1.53613 14.1673 1.53613H25.834C29.0556 1.53613 31.6673 4.1478 31.6673 7.36947V32.6299C31.6673 35.8515 29.0556 38.4632 25.834 38.4632H14.1673C10.9457 38.4632 8.33398 35.8515 8.33398 32.6299V7.36947Z" fill="#7772F1"/>
</svg>

<svg xmlns="http://www.w3.org/2000/svg" width="40" height="40" fill="none"><path fill="#7772F1" fill-rule="evenodd" d="M14.167 4.87a2.5 2.5 0 0 0-2.5 2.5v25.26a2.5 2.5 0 0 0 2.5 2.5h11.667a2.5 2.5 0 0 0 2.5-2.5V7.37a2.5 2.5 0 0 0-2.5-2.5h-.139l-.406.974a1.67 1.67 0 0 1-1.538 1.025h-7.5c-.673 0-1.28-.404-1.539-1.025l-.406-.975zm-5.833 2.5a5.833 5.833 0 0 1 5.833-5.834h11.667a5.833 5.833 0 0 1 5.833 5.833v25.26a5.833 5.833 0 0 1-5.833 5.834H14.167a5.833 5.833 0 0 1-5.833-5.833z" clip-rule="evenodd"/></svg>
